X: 118
T:Le Pont
M:2/4
L:1/16
C:Frederic Paris
R:Bourree
Z:Steve Mansfield
K:Dm
A3B A2A2 | GAGF EDEF | A3B A2A2 | GFGA BABc | A3B A2A2 | GAGF EDEF |
A3B A2A2 | GABc A4 :: dcde c=Bcd | =BABc A2A2 | GAGF EDEF |
GAGF E2D2 | dcde c=Bcd | =BABc A2(3ABc | d2d2 cedc |d2c2 d4 :|

